TH1/tut3_transpad.svg

<svg xmlns="http://www.w3.org/2000/svg" viewBox="0 0 1200 800" preserveAspectRatio="none" width="1200" height="800">
 <path d="M0,0H1200V800H0Z" style="fill: white;"></path>
 <g>
  <svg viewBox="0 0 1200 800" preserveAspectRatio="none" x="0" y="0" width="1200" height="800">
   <path d="M0,0H1200V800H0Z" style="fill: white;"></path>
   <g>
    <g transform="translate(120,80)">
     <path d="M0,0H960V640H0Z" style="fill: white; stroke: black; stroke-width: 1;"></path>
     <svg x="0" y="0" overflow="hidden" width="960" height="640" viewBox="0 0 960 640">
      <g>
       <path d="M0,640h67v-12h39v-23h9v23h10v-23h9v12h10v-35h10v-11h9v-23h10v34h9v-57h10v-184h10v92h9v-58h19v-69h10v12h10v-58h9v-103h10v-104h9v161h10v-115h10v-69h9v173h10v-161h9v11h10v58h10v-81h9v173h10v115h9v-81h10v-34h10v184h9v-81h10v58h9v103h10v-34h10v57h9v-11h10v46h9v34h10v58h10v-35h9v58h19v-23h20v11h9v12h413" style="stroke-linejoin: miter; stroke: #00009a; stroke-width: 1; fill: none;"></path>
      </g>
     </svg>
     <g>
      <g transform="translate(0,640)">
       <path d="M0,0h960M0,-24v24m32,-12v12m32,-12v12m32,-12v12m32,-12v12m32,-24v24m32,-12v12m32,-12v12m32,-12v12m32,-12v12m32,-24v24m32,-12v12m32,-12v12m32,-12v12m32,-12v12m32,-24v24m32,-12v12m32,-12v12m32,-12v12m32,-12v12m32,-24v24m32,-12v12m32,-12v12m32,-12v12m32,-12v12m32,-24v24m32,-12v12m32,-12v12m32,-12v12m32,-12v12m32,-24v24" style="stroke: black; stroke-width: 1;"></path>
       <g font-family="Arial" font-size="28" space="preserve" fill="black" text-anchor="middle">
        <text dy=".8em" transform="translate(0,6)">
         -3
        </text>
        <text dy=".8em" transform="translate(160,6)">
         -2
        </text>
        <text dy=".8em" transform="translate(320,6)">
         -1
        </text>
        <text dy=".8em" transform="translate(480,6)">
         0
        </text>
        <text dy=".8em" transform="translate(640,6)">
         1
        </text>
        <text dy=".8em" transform="translate(800,6)">
         2
        </text>
        <text dy=".8em" transform="translate(960,6)">
         3
        </text>
       </g>
      </g>
      <g>
       <path d="M0,0v640M36,640h-36m18,-23h-18m18,-23h-18m18,-23h-18m18,-23h-18m36,-23h-36m18,-23h-18m18,-23h-18m18,-23h-18m18,-23h-18m36,-23h-36m18,-23h-18m18,-23h-18m18,-23h-18m18,-23h-18m36,-23h-36m18,-23h-18m18,-23h-18m18,-23h-18m18,-23h-18m36,-23h-36m18,-23h-18m18,-23h-18m18,-23h-18m18,-23h-18m36,-23h-36m18,-23h-18m18,-23h-18" style="stroke: black; stroke-width: 1;"></path>
       <g font-family="Arial" font-size="28" space="preserve" fill="black" text-anchor="end">
        <text dy=".4em" transform="translate(-4,640)">
         0
        </text>
        <text dy=".4em" transform="translate(-4,525)">
         10
        </text>
        <text dy=".4em" transform="translate(-4,410)">
         20
        </text>
        <text dy=".4em" transform="translate(-4,295)">
         30
        </text>
        <text dy=".4em" transform="translate(-4,180)">
         40
        </text>
        <text dy=".4em" transform="translate(-4,65)">
         50
        </text>
       </g>
      </g>
     </g>
    </g>
    <g transform="translate(480,52)" font-family="Arial" font-size="23" space="preserve" fill="black">
     <path d="M0,0H240V128H0Z" style="fill: white; stroke: black; stroke-width: 1;"></path>
     <text text-anchor="middle" dy=".4em" transform="translate(120,16)">
      h1
     </text>
     <text text-anchor="start" dy=".4em" transform="translate(12,48)">
      Entries
     </text>
     <text text-anchor="end" dy=".4em" transform="translate(228,48)">
      1000
     </text>
     <text text-anchor="start" dy=".4em" transform="translate(12,80)">
      Mean
     </text>
     <text text-anchor="end" dy=".4em" transform="translate(228,80)">
      -1.021
     </text>
     <text text-anchor="start" dy=".4em" transform="translate(12,112)">
      Std Dev
     </text>
     <text text-anchor="end" dy=".4em" transform="translate(228,112)">
      0.4857
     </text>
     <path d="M0,32h240" style="stroke: black; stroke-width: 1;"></path>
    </g>
    <g transform="translate(567,4)" font-family="Arial" font-size="36" space="preserve">
     <text fill="black" text-anchor="middle" dy=".4em" transform="translate(33,22)">
      h1
     </text>
    </g>
   </g>
  </svg>
  <svg viewBox="0 0 1200 800" preserveAspectRatio="none" x="0" y="0" width="1200" height="800">
   <path d="M0,0H1200V800H0Z" style="fill: white; opacity: 0;"></path>
   <g>
    <g transform="translate(120,80)">
     <path d="M0,0H960V640H0Z" style="fill: white; opacity: 0; stroke: black; stroke-width: 1;"></path>
     <svg x="0" y="0" overflow="hidden" width="960" height="640" viewBox="0 0 960 640">
      <g>
       <path d="M0,624h10v2h9v-8h10v1h9v-6h10v4h10v-10h9v-3h10v3h9v-4h10v-5h10v-4h9v2h10v-7h9v-5h10v-7h10v-4h9v-13h10v5h9v-16h10v11h10v-11h9v-4h10v-32h9v-3h10v-7h10v-2h9v-1h10v-21h9v-2h10v-22h10v-6h9v-19h10v-12h9v-1h10v5h10v-40h9v-6h10v-6h9v-17h10v-2h10v-10h9v-26h10v11h9v-56h10v28h10v-46h9v5h10v29h9v-48h10v-12h10v-19h9v3h10v-28h9v-2h10v-8h10v17h9v-37h10v-2h9v-1h20v9h9v-22h10v2h9v1h10v-24h10v23h9v16h10v-5h9v-9h10v-12h10v-3h9v16h10v16h9v-32h10v39h10v19h19v5h9v2h10v20h10v-26h9v47h10v2h9v13h10v5h10v13h9v20h10v8h9v15h10v12h10v-4h9v32h10v3h9v8h10v19h19v14h10v29h9v20h10" style="stroke-linejoin: miter; stroke: #ff0000; stroke-width: 1; fill: none;"></path>
      </g>
     </svg>
    </g>
    <g transform="translate(780,52)" font-family="Arial" font-size="23" space="preserve" fill="#ff0000">
     <path d="M0,0H240V128H0Z" style="fill: white; stroke: black; stroke-width: 1;"></path>
     <text text-anchor="middle" dy=".4em" transform="translate(120,16)">
      h2
     </text>
     <text text-anchor="start" dy=".4em" transform="translate(12,48)">
      Entries
     </text>
     <text text-anchor="end" dy=".4em" transform="translate(228,48)">
      100000
     </text>
     <text text-anchor="start" dy=".4em" transform="translate(12,80)">
      Mean
     </text>
     <text text-anchor="end" dy=".4em" transform="translate(228,80)">
      0.7477
     </text>
     <text text-anchor="start" dy=".4em" transform="translate(12,112)">
      Std Dev
     </text>
     <text text-anchor="end" dy=".4em" transform="translate(228,112)">
      1.253
     </text>
     <path d="M0,32h240" style="stroke: black; stroke-width: 1;"></path>
    </g>
    <g transform="translate(1080,80)">
     <path d="M0,0v640M0,640h-33m33,-3h-8m8,-3h-8m8,-4h-8m8,-3h-8m8,-3h-17m17,-3h-8m8,-3h-8m8,-4h-8m8,-3h-8m8,-3h-17m17,-3h-8m8,-3h-8m8,-4h-8m8,-3h-8m8,-3h-17m17,-3h-8m8,-3h-8m8,-4h-8m8,-3h-8m8,-3h-33m33,-3h-8m8,-3h-8m8,-4h-8m8,-3h-8m8,-3h-17m17,-3h-8m8,-3h-8m8,-4h-8m8,-3h-8m8,-3h-17m17,-3h-8m8,-3h-8m8,-4h-8m8,-3h-8m8,-3h-17m17,-3h-8m8,-3h-8m8,-4h-8m8,-3h-8m8,-3h-33m33,-3h-8m8,-3h-8m8,-4h-8m8,-3h-8m8,-3h-17m17,-3h-8m8,-3h-8m8,-4h-8m8,-3h-8m8,-3h-17m17,-3h-8m8,-3h-8m8,-4h-8m8,-3h-8m8,-3h-17m17,-3h-8m8,-3h-8m8,-4h-8m8,-3h-8m8,-3h-33m33,-3h-8m8,-3h-8m8,-4h-8m8,-3h-8m8,-3h-17m17,-3h-8m8,-3h-8m8,-4h-8m8,-3h-8m8,-3h-17m17,-3h-8m8,-3h-8m8,-4h-8m8,-3h-8m8,-3h-17m17,-3h-8m8,-3h-8m8,-4h-8m8,-3h-8m8,-3h-33m33,-3h-8m8,-3h-8m8,-4h-8m8,-3h-8m8,-3h-17m17,-3h-8m8,-3h-8m8,-4h-8m8,-3h-8m8,-3h-17m17,-3h-8m8,-3h-8m8,-4h-8m8,-3h-8m8,-3h-17m17,-3h-8m8,-3h-8m8,-4h-8m8,-3h-8m8,-3h-33m33,-3h-8m8,-3h-8m8,-4h-8m8,-3h-8m8,-3h-17m17,-3h-8m8,-3h-8m8,-4h-8m8,-3h-8m8,-3h-17m17,-3h-8m8,-3h-8m8,-4h-8m8,-3h-8m8,-3h-17m17,-3h-8m8,-3h-8m8,-4h-8m8,-3h-8m8,-3h-33m33,-3h-8m8,-3h-8m8,-4h-8m8,-3h-8m8,-3h-17m17,-3h-8m8,-3h-8m8,-4h-8m8,-3h-8m8,-3h-17m17,-3h-8m8,-3h-8m8,-4h-8m8,-3h-8m8,-3h-17m17,-3h-8m8,-3h-8m8,-4h-8m8,-3h-8m8,-3h-33m33,-3h-8m8,-3h-8m8,-4h-8m8,-3h-8m8,-3h-17m17,-3h-8m8,-3h-8m8,-4h-8m8,-3h-8m8,-3h-17m17,-3h-8m8,-3h-8m8,-4h-8m8,-3h-8m8,-3h-17m17,-3h-8m8,-3h-8m8,-4h-8m8,-3h-8m8,-3h-33m33,-3h-8m8,-3h-8m8,-4h-8m8,-3h-8m8,-3h-17m17,-3h-8m8,-3h-8m8,-4h-8m8,-3h-8m8,-3h-17m17,-3h-8m8,-3h-8m8,-4h-8m8,-3h-8m8,-3h-17m17,-3h-8m8,-3h-8m8,-4h-8m8,-3h-8m8,-3h-33m33,-3h-8m8,-3h-8m8,-4h-8m8,-3h-8m8,-3h-17m17,-3h-8m8,-3h-8m8,-4h-8m8,-3h-8m8,-3h-17m17,-3h-8m8,-3h-8m8,-4h-8m8,-3h-8m8,-3h-17m17,-3h-8m8,-3h-8m8,-4h-8m8,-3h-8m8,-3h-33" style="stroke: black; stroke-width: 1;"></path>
     <g font-family="Arial" font-size="32" space="preserve" font-weight="bold" fill="#ff0000" text-anchor="start">
      <text dy=".4em" transform="translate(4,640)">
       0
      </text>
      <text dy=".4em" transform="translate(4,576)">
       200
      </text>
      <text dy=".4em" transform="translate(4,512)">
       400
      </text>
      <text dy=".4em" transform="translate(4,448)">
       600
      </text>
      <text dy=".4em" transform="translate(4,384)">
       800
      </text>
      <text dy=".4em" transform="translate(4,320)">
       1000
      </text>
      <text dy=".4em" transform="translate(4,256)">
       1200
      </text>
      <text dy=".4em" transform="translate(4,192)">
       1400
      </text>
      <text dy=".4em" transform="translate(4,128)">
       1600
      </text>
      <text dy=".4em" transform="translate(4,64)">
       1800
      </text>
      <text dy=".4em" transform="translate(4)">
       2000
      </text>
     </g>
    </g>
   </g>
  </svg>
 </g>
</svg>

<svg xmlns="http://www.w3.org/2000/svg" viewBox="0 0 1200 800" preserveAspectRatio="none" width="1200" height="800">
 <path d="M0,0H1200V800H0Z" style="fill: white;"></path>
 <g>
  <svg viewBox="0 0 1200 800" preserveAspectRatio="none" x="0" y="0" width="1200" height="800">
   <path d="M0,0H1200V800H0Z" style="fill: white;"></path>
   <g>
    <g transform="translate(120,80)">
     <path d="M0,0H960V640H0Z" style="fill: white; stroke: black; stroke-width: 1;"></path>
     <svg x="0" y="0" overflow="hidden" width="960" height="640" viewBox="0 0 960 640">
      <g>
       <path d="M0,640h67v-12h39v-23h9v23h10v-23h9v12h10v-35h10v-11h9v-23h10v34h9v-57h10v-184h10v92h9v-58h19v-69h10v12h10v-58h9v-103h10v-104h9v161h10v-115h10v-69h9v173h10v-161h9v11h10v58h10v-81h9v173h10v115h9v-81h10v-34h10v184h9v-81h10v58h9v103h10v-34h10v57h9v-11h10v46h9v34h10v58h10v-35h9v58h19v-23h20v11h9v12h413" style="stroke-linejoin: miter; stroke: #00009a; stroke-width: 1; fill: none;"></path>
      </g>
     </svg>
     <g>
      <g transform="translate(0,640)">
       <path d="M0,0h960M0,-24V0M32,-12V0M64,-12V0M96,-12V0M128,-12V0M160,-24V0M192,-12V0M224,-12V0M256,-12V0M288,-12V0M320,-24V0M352,-12V0M384,-12V0M416,-12V0M448,-12V0M480,-24V0M512,-12V0M544,-12V0M576,-12V0M608,-12V0M640,-24V0M672,-12V0M704,-12V0M736,-12V0M768,-12V0M800,-24V0M832,-12V0M864,-12V0M896,-12V0M928,-12V0M960,-24V0" style="stroke: black; stroke-width: 1;"></path>
       <g font-family="Arial" font-size="28" space="preserve" fill="black" text-anchor="middle">
        <text dy=".8em" transform="translate(0,6)">
         -3
        </text>
        <text dy=".8em" transform="translate(160,6)">
         -2
        </text>
        <text dy=".8em" transform="translate(320,6)">
         -1
        </text>
        <text dy=".8em" transform="translate(480,6)">
         0
        </text>
        <text dy=".8em" transform="translate(640,6)">
         1
        </text>
        <text dy=".8em" transform="translate(800,6)">
         2
        </text>
        <text dy=".8em" transform="translate(960,6)">
         3
        </text>
       </g>
      </g>
      <g>
       <path d="M0,0v640M36,640H0M18,617H0M18,594H0M18,571H0M18,548H0M36,525H0M18,502H0M18,479H0M18,456H0M18,433H0M36,410H0M18,387H0M18,364H0M18,341H0M18,318H0M36,295H0M18,272H0M18,249H0M18,226H0M18,203H0M36,180H0M18,157H0M18,134H0M18,111H0M18,88H0M36,65H0M18,42H0M18,19H0" style="stroke: black; stroke-width: 1;"></path>
       <g font-family="Arial" font-size="28" space="preserve" fill="black" text-anchor="end">
        <text dy=".4em" transform="translate(-4,640)">
         0
        </text>
        <text dy=".4em" transform="translate(-4,525)">
         10
        </text>
        <text dy=".4em" transform="translate(-4,410)">
         20
        </text>
        <text dy=".4em" transform="translate(-4,295)">
         30
        </text>
        <text dy=".4em" transform="translate(-4,180)">
         40
        </text>
        <text dy=".4em" transform="translate(-4,65)">
         50
        </text>
       </g>
      </g>
     </g>
    </g>
    <g transform="translate(480,52)" font-family="Arial" font-size="23" space="preserve" fill="black">
     <path d="M0,0H240V128H0Z" style="fill: white; stroke: black; stroke-width: 1;"></path>
     <text text-anchor="middle" dy=".4em" transform="translate(120,16)">
      h1
     </text>
     <text text-anchor="start" dy=".4em" transform="translate(12,48)">
      Entries
     </text>
     <text text-anchor="end" dy=".4em" transform="translate(228,48)">
      1000
     </text>
     <text text-anchor="start" dy=".4em" transform="translate(12,80)">
      Mean
     </text>
     <text text-anchor="end" dy=".4em" transform="translate(228,80)">
      -1.021
     </text>
     <text text-anchor="start" dy=".4em" transform="translate(12,112)">
      Std Dev
     </text>
     <text text-anchor="end" dy=".4em" transform="translate(228,112)">
      0.4857
     </text>
     <path d="M0,32h240" style="stroke: black; stroke-width: 1;"></path>
    </g>
    <g transform="translate(567,4)" font-family="Arial" font-size="36" space="preserve">
     <text fill="black" text-anchor="middle" dy=".4em" transform="translate(33,22)">
      h1
     </text>
    </g>
   </g>
  </svg>
  <svg viewBox="0 0 1200 800" preserveAspectRatio="none" x="0" y="0" width="1200" height="800">
   <path d="M0,0H1200V800H0Z" style="fill: white; opacity: 0;"></path>
   <g>
    <g transform="translate(120,80)">
     <path d="M0,0H960V640H0Z" style="fill: white; opacity: 0; stroke: black; stroke-width: 1;"></path>
     <svg x="0" y="0" overflow="hidden" width="960" height="640" viewBox="0 0 960 640">
      <g>
       <path d="M0,624h10v2h9v-8h10v1h9v-6h10v4h10v-10h9v-3h10v3h9v-4h10v-5h10v-4h9v2h10v-7h9v-5h10v-7h10v-4h9v-13h10v5h9v-16h10v11h10v-11h9v-4h10v-32h9v-3h10v-7h10v-2h9v-1h10v-21h9v-2h10v-22h10v-6h9v-19h10v-12h9v-1h10v5h10v-40h9v-6h10v-6h9v-17h10v-2h10v-10h9v-26h10v11h9v-56h10v28h10v-46h9v5h10v29h9v-48h10v-12h10v-19h9v3h10v-28h9v-2h10v-8h10v17h9v-37h10v-2h9v-1h20v9h9v-22h10v2h9v1h10v-24h10v23h9v16h10v-5h9v-9h10v-12h10v-3h9v16h10v16h9v-32h10v39h10v19h19v5h9v2h10v20h10v-26h9v47h10v2h9v13h10v5h10v13h9v20h10v8h9v15h10v12h10v-4h9v32h10v3h9v8h10v19h19v14h10v29h9v20h10" style="stroke-linejoin: miter; stroke: #ff0000; stroke-width: 1; fill: none;"></path>
      </g>
     </svg>
    </g>
    <g transform="translate(780,52)" font-family="Arial" font-size="23" space="preserve" fill="#ff0000">
     <path d="M0,0H240V128H0Z" style="fill: white; stroke: black; stroke-width: 1;"></path>
     <text text-anchor="middle" dy=".4em" transform="translate(120,16)">
      h2
     </text>
     <text text-anchor="start" dy=".4em" transform="translate(12,48)">
      Entries
     </text>
     <text text-anchor="end" dy=".4em" transform="translate(228,48)">
      100000
     </text>
     <text text-anchor="start" dy=".4em" transform="translate(12,80)">
      Mean
     </text>
     <text text-anchor="end" dy=".4em" transform="translate(228,80)">
      0.7477
     </text>
     <text text-anchor="start" dy=".4em" transform="translate(12,112)">
      Std Dev
     </text>
     <text text-anchor="end" dy=".4em" transform="translate(228,112)">
      1.253
     </text>
     <path d="M0,32h240" style="stroke: black; stroke-width: 1;"></path>
    </g>
    <g transform="translate(1080,80)">
     <path d="M0,0v640M0,640H-33M0,637H-8M0,634H-8M0,630H-8M0,627H-8M0,624H-17M0,621H-8M0,618H-8M0,614H-8M0,611H-8M0,608H-17M0,605H-8M0,602H-8M0,598H-8M0,595H-8M0,592H-17M0,589H-8M0,586H-8M0,582H-8M0,579H-8M0,576H-33M0,573H-8M0,570H-8M0,566H-8M0,563H-8M0,560H-17M0,557H-8M0,554H-8M0,550H-8M0,547H-8M0,544H-17M0,541H-8M0,538H-8M0,534H-8M0,531H-8M0,528H-17M0,525H-8M0,522H-8M0,518H-8M0,515H-8M0,512H-33M0,509H-8M0,506H-8M0,502H-8M0,499H-8M0,496H-17M0,493H-8M0,490H-8M0,486H-8M0,483H-8M0,480H-17M0,477H-8M0,474H-8M0,470H-8M0,467H-8M0,464H-17M0,461H-8M0,458H-8M0,454H-8M0,451H-8M0,448H-33M0,445H-8M0,442H-8M0,438H-8M0,435H-8M0,432H-17M0,429H-8M0,426H-8M0,422H-8M0,419H-8M0,416H-17M0,413H-8M0,410H-8M0,406H-8M0,403H-8M0,400H-17M0,397H-8M0,394H-8M0,390H-8M0,387H-8M0,384H-33M0,381H-8M0,378H-8M0,374H-8M0,371H-8M0,368H-17M0,365H-8M0,362H-8M0,358H-8M0,355H-8M0,352H-17M0,349H-8M0,346H-8M0,342H-8M0,339H-8M0,336H-17M0,333H-8M0,330H-8M0,326H-8M0,323H-8M0,320H-33M0,317H-8M0,314H-8M0,310H-8M0,307H-8M0,304H-17M0,301H-8M0,298H-8M0,294H-8M0,291H-8M0,288H-17M0,285H-8M0,282H-8M0,278H-8M0,275H-8M0,272H-17M0,269H-8M0,266H-8M0,262H-8M0,259H-8M0,256H-33M0,253H-8M0,250H-8M0,246H-8M0,243H-8M0,240H-17M0,237H-8M0,234H-8M0,230H-8M0,227H-8M0,224H-17M0,221H-8M0,218H-8M0,214H-8M0,211H-8M0,208H-17M0,205H-8M0,202H-8M0,198H-8M0,195H-8M0,192H-33M0,189H-8M0,186H-8M0,182H-8M0,179H-8M0,176H-17M0,173H-8M0,170H-8M0,166H-8M0,163H-8M0,160H-17M0,157H-8M0,154H-8M0,150H-8M0,147H-8M0,144H-17M0,141H-8M0,138H-8M0,134H-8M0,131H-8M0,128H-33M0,125H-8M0,122H-8M0,118H-8M0,115H-8M0,112H-17M0,109H-8M0,106H-8M0,102H-8M0,99H-8M0,96H-17M0,93H-8M0,90H-8M0,86H-8M0,83H-8M0,80H-17M0,77H-8M0,74H-8M0,70H-8M0,67H-8M0,64H-33M0,61H-8M0,58H-8M0,54H-8M0,51H-8M0,48H-17M0,45H-8M0,42H-8M0,38H-8M0,35H-8M0,32H-17M0,29H-8M0,26H-8M0,22H-8M0,19H-8M0,16H-17M0,13H-8M0,10H-8M0,6H-8M0,3H-8M0,0H-33" style="stroke: black; stroke-width: 1;"></path>
     <g font-family="Arial" font-size="32" space="preserve" font-weight="bold" fill="#ff0000" text-anchor="start">
      <text dy=".4em" transform="translate(4,640)">
       0
      </text>
      <text dy=".4em" transform="translate(4,576)">
       200
      </text>
      <text dy=".4em" transform="translate(4,512)">
       400
      </text>
      <text dy=".4em" transform="translate(4,448)">
       600
      </text>
      <text dy=".4em" transform="translate(4,384)">
       800
      </text>
      <text dy=".4em" transform="translate(4,320)">
       1000
      </text>
      <text dy=".4em" transform="translate(4,256)">
       1200
      </text>
      <text dy=".4em" transform="translate(4,192)">
       1400
      </text>
      <text dy=".4em" transform="translate(4,128)">
       1600
      </text>
      <text dy=".4em" transform="translate(4,64)">
       1800
      </text>
      <text dy=".4em" transform="translate(4)">
       2000
      </text>
     </g>
    </g>
   </g>
  </svg>
 </g>
</svg>
